src/icons/document.svg

<svg width="31" height="42" viewBox="0 0 31 42" fill="none" xmlns="http://www.w3.org/2000/svg">
<path d="M5.16667 0C2.31693 0 0 2.3543 0 5.25V36.75C0 39.6457 2.31693 42 5.16667 42H25.8333C28.6831 42 31 39.6457 31 36.75V13.125H20.6667C19.2378 13.125 18.0833 11.952 18.0833 10.5V0H5.16667ZM20.6667 0V10.5H31L20.6667 0ZM6.45833 5.25H11.625C12.3354 5.25 12.9167 5.84062 12.9167 6.5625C12.9167 7.28438 12.3354 7.875 11.625 7.875H6.45833C5.74792 7.875 5.16667 7.28438 5.16667 6.5625C5.16667 5.84062 5.74792 5.25 6.45833 5.25ZM6.45833 10.5H11.625C12.3354 10.5 12.9167 11.0906 12.9167 11.8125C12.9167 12.5344 12.3354 13.125 11.625 13.125H6.45833C5.74792 13.125 5.16667 12.5344 5.16667 11.8125C5.16667 11.0906 5.74792 10.5 6.45833 10.5ZM7.75 18.375H23.25C24.6789 18.375 25.8333 19.548 25.8333 21V26.25C25.8333 27.702 24.6789 28.875 23.25 28.875H7.75C6.32109 28.875 5.16667 27.702 5.16667 26.25V21C5.16667 19.548 6.32109 18.375 7.75 18.375ZM7.75 21V26.25H23.25V21H7.75ZM19.375 34.125H24.5417C25.2521 34.125 25.8333 34.7156 25.8333 35.4375C25.8333 36.1594 25.2521 36.75 24.5417 36.75H19.375C18.6646 36.75 18.0833 36.1594 18.0833 35.4375C18.0833 34.7156 18.6646 34.125 19.375 34.125Z" fill="#FFB801"/>
</svg>

<svg xmlns="http://www.w3.org/2000/svg" width="31" height="42" fill="none">
  <path fill="#FFB801" d="M5.167 0C2.317 0 0 2.354 0 5.25v31.5C0 39.646 2.317 42 5.167 42h20.666C28.683 42 31 39.646 31 36.75V13.125H20.667c-1.43 0-2.584-1.173-2.584-2.625V0H5.167Zm15.5 0v10.5H31L20.667 0ZM6.458 5.25h5.167c.71 0 1.292.59 1.292 1.313 0 .721-.582 1.312-1.292 1.312H6.458c-.71 0-1.291-.59-1.291-1.313 0-.721.58-1.312 1.291-1.312Zm0 5.25h5.167c.71 0 1.292.59 1.292 1.313 0 .721-.582 1.312-1.292 1.312H6.458c-.71 0-1.291-.59-1.291-1.313 0-.721.58-1.312 1.291-1.312Zm1.292 7.875h15.5c1.429 0 2.583 1.173 2.583 2.625v5.25c0 1.452-1.154 2.625-2.583 2.625H7.75c-1.429 0-2.583-1.173-2.583-2.625V21c0-1.452 1.154-2.625 2.583-2.625Zm0 2.625v5.25h15.5V21H7.75Zm11.625 13.125h5.167c.71 0 1.291.59 1.291 1.313 0 .721-.58 1.312-1.291 1.312h-5.167c-.71 0-1.292-.59-1.292-1.313 0-.721.582-1.312 1.292-1.312Z"/>
</svg>
